X:1
T:Chas. H.  Gabriel
T:Lizzie DeArmond
T:With Joy We Sing
%%score { ( 1 3 ) | ( 2 4 ) }
L:1/8
Q:1/4=112
M:4/4
K:Eb
V:1 treble 
V:3 treble 
V:2 bass 
V:4 bass 
V:1
"^Moderato"{/x} GEFB, G2 B2 | GEFB, E4 | GEFB, G2 B2 | FFGF B4 | [Ac][GB][FA][EG] [DF]2 B,2 | %5
w: Lit\- tle bells of Christ\- mas,|hear us gai\- ly ring,|Chim\- ing out the sto\- ry|of the Ba\- by King;|Com\- ing thro' the star\- light|
w: Lit\- tle bells of Christ\- mas|thro' the whole long year|Should be ev\- er read\- y|with their notes of cheer;|Lit\- tle bits of glad\- ness|
w: Lit\- tle bells of Christ\- mas|peal\- ing in His name,|Who to bless and save us,|to this old world came,|Ring\- ing hap\- py prais\- es|
 [Ac][GB][FA][EG] [DF]4 | GEFB, G2 B2 | ACDG E4 | %8
w: to a man\- ger low,|While the world lay sleep\- ing|'neath the moon's pale glow.|
w: from the an\- gel song,|Lift\- ing earth to heav\- en,|mak\- ing weak hearts strong.|
w: as the days go by,|"Glo\- ry with\- out ceas\- ing,|un\- to God most high."|
"^Chorus"[Q:1/4=120]"^Allegretto" e2 d2 c2"^Faster" BG | ccBG E4 | B2 D2 B2 dc | BF=EF G4 | %12
w: Ring, ring ring, yes with|joy we glad\- ly ring;|Hail! all hail! to the|lit\- tle In\- fant King;|
w: ||||
w: ||||
 e2 d2 c2 dG | ccBG E4 | FAdc BeBA | G2 F2 E4 |] %16
w: Chime, chime chime, in a|mer\- ry song we chime;|"Wake up, lit\- tle peo\- ple, 'tis the|Christ\- mas time."|
w: ||||
w: ||||
V:2
 [E,G,B,] z [D,G,A,B,] z [E,G,B,][E,G,B,][E,G,B,][E,G,B,] | %1
 [E,G,B,] z [D,A,_B,] z [E,G,B,][E,G,B,][E,G,B,][E,G,B,] | %2
 [E,G,B,] z [D,A,B,] z [E,G,B,][E,G,B,][=E,G,^C][E,G,C] | [F,B,D] z [F,=A,E] z [B,,B,]_A,F,D, | %4
 B,, z [A,B,D] z B,,[F,A,B,][F,A,][F,A,] | B,, z [A,B,D] z B,,[A,B,][A,A,A,B,][A,B,] | %6
 [E,G,B,] z [D,G,B,] z [E,G,B,][E,G,B,][G,,G,][G,,G,] | [A,,A,] z [B,,A,] z [E,G,]4 | %8
 B,2 B,2 B,2 B,2 | B,B,B,B, G,4 | A,2 A,2 A,2 B,B, | B,B,B,B, [E,B,]4 | B,2 B,2 B,2 B,B, | %13
 B,B,B,B, G,4 | CCCE EB,B,B, | B,2 A,2 G,4 |] %16
V:3
 x8 | x8 | x8 | x8 | x8 | x8 | GEFB, G2 [DE][DE] | C z z2 z4 | G2 G2 G2 GE | GGGE B,4 | %10
 D2 B,2 D2 AA | FF^CD _E4 | G2 G2 G2 GE | GGGE E4 | EE^FF GGGF | E2 D2 E4 |] %16
V:4
 x8 | x8 | x8 | x8 | x8 | x8 | x8 | x8 | E,2 B,,2 E,2 B,,B,, | E,E,G,B, G,4 | F,2 B,,2 F,2 B,,B,, | %11
 D,D,B,,B,, E,E,G,B, | E,2 B,,2 E,2 B,,B,, | E,E,G,B, E,4 | A,,A,,=A,,A,, B,,B,,B,,B,, | %15
 B,,2 B,,2 E,4 |] %16

